X:179
T: Untreue
N: A0215B
O: Europa, Mitteleuropa, Deutschland
N: Vereinfacht bei Werlin 1646 S. 242.
R: Romanze, Ballade, Lied
M: 4/4
L: 1/8
K: E
A2 | A2A2=c2c2 | B4A2
A2 | A2E2=G2F2 | E4z2
A2 | A2A2=c2c2 | B4A2
A2 | A2E2=G2F2 | E4z2
=c2 | =c2B2c2=d2 | A4=G2
=c2 | B2=c2=d2B2 | =c4z2
c2 | =d2d2e2d2 | =c2BAB4 | A4z2
B2 | =c2=G2A2F2 | E6

@@@ Tune index: 179
